X: 38458
T: Statistician, The
R: hornpipe
M: 4/4
K: Dmajor
|:(3FG^G|A>fd>A F>d A2|G>A_B>=B g2 e>B|c>ba>g f2 (3edc|d>^de>^e f2 (3FG^G|
A2 (3fdA F2 (3AGF|G>^GA>B =g>e (3Bcd|c2 (3bag f>ed>c|(3dAf (3dAF D2:|
|:^g>a|f>dA>F D2 (3=cB^A|B>GD>G B2 ^A>B|g>dB>G D2 B>d|c>A (3Ace a2 ^g>a|
f>da>f d>a (3fed|g>^ga>^a b>g'b>=c'|c'2 (3bge (3cBA (3gec|(3dAf (3dAF D2:|

